Numix/16/status/indicator-keyboard-Pt-5.svg

<?xml version="1.0" encoding="UTF-8" standalone="no"?>
<svg
   xmlns:dc="http://purl.org/dc/elements/1.1/"
   xmlns:cc="http://creativecommons.org/ns#"
   xmlns:rdf="http://www.w3.org/1999/02/22-rdf-syntax-ns#"
   xmlns:svg="http://www.w3.org/2000/svg"
   xmlns="http://www.w3.org/2000/svg"
   xmlns:sodipodi="http://sodipodi.sourceforge.net/DTD/sodipodi-0.dtd"
   xmlns:inkscape="http://www.inkscape.org/namespaces/inkscape"
   viewBox="0 0 16 16"
   id="svg2"
   version="1.1"
   inkscape:version="0.91 r13725"
   sodipodi:docname="indicator-keyboard-Pt-5.svg">
  <metadata
     id="metadata14">
    <rdf:RDF>
      <cc:Work
         rdf:about="">
        <dc:format>image/svg+xml</dc:format>
        <dc:type
           rdf:resource="http://purl.org/dc/dcmitype/StillImage" />
      </cc:Work>
    </rdf:RDF>
  </metadata>
  <defs
     id="defs12" />
  <sodipodi:namedview
     pagecolor="#ffffff"
     bordercolor="#666666"
     borderopacity="1"
     objecttolerance="10"
     gridtolerance="10"
     guidetolerance="10"
     inkscape:pageopacity="0"
     inkscape:pageshadow="2"
     inkscape:window-width="459"
     inkscape:window-height="369"
     id="namedview10"
     showgrid="false"
     inkscape:zoom="14.75"
     inkscape:cx="8"
     inkscape:cy="8"
     inkscape:window-x="65"
     inkscape:window-y="24"
     inkscape:window-maximized="0"
     inkscape:current-layer="svg2" />
  <path
     style="fill:#ececec;fill-opacity:1"
     d="M 1.5996094 0 C 0.71320937 2.9605947e-16 0 0.71320937 0 1.5996094 L 0 14.400391 C 2.9605947e-16 15.286791 0.71320937 16 1.5996094 16 L 14.400391 16 C 15.286791 16 16 15.286791 16 14.400391 L 16 1.5996094 C 16 0.71320937 15.286791 0 14.400391 0 L 1.5996094 0 z M 4.1640625 4.8046875 C 5.0460625 4.8046875 5.7027656 4.9725938 6.1347656 5.3085938 C 6.5667656 5.6445937 6.7832031 6.1222344 6.7832031 6.7402344 C 6.7832031 7.0942344 6.71975 7.3964375 6.59375 7.6484375 C 6.46775 7.8944375 6.2886875 8.0959531 6.0546875 8.2519531 C 5.8206875 8.4019531 5.5314531 8.5139375 5.1894531 8.5859375 C 4.8534531 8.6519375 4.472875 8.6835937 4.046875 8.6835938 L 3.2011719 8.6835938 L 3.2011719 11.095703 L 2.5898438 11.095703 L 2.5898438 4.9765625 C 2.8058437 4.9165625 3.0577031 4.8736094 3.3457031 4.8496094 C 3.6397031 4.8196094 3.9120625 4.8046875 4.1640625 4.8046875 z M 8.4277344 4.9667969 L 8.4277344 6.4433594 L 10.28125 6.4433594 L 10.28125 6.9375 L 8.4277344 6.9375 L 8.4277344 9.4121094 C 8.4277344 9.6761094 8.4482344 9.8925467 8.4902344 10.060547 C 8.5382344 10.222547 8.6054531 10.349453 8.6894531 10.439453 C 8.7734531 10.529453 8.8741406 10.589141 8.9941406 10.619141 C 9.1141406 10.649141 9.246625 10.664062 9.390625 10.664062 C 9.636625 10.664062 9.834375 10.636031 9.984375 10.582031 C 10.134375 10.522031 10.251938 10.469875 10.335938 10.421875 L 10.480469 10.90625 C 10.396469 10.96025 10.249062 11.023703 10.039062 11.095703 C 9.8290624 11.161703 9.6014687 11.195313 9.3554688 11.195312 C 9.0674688 11.195312 8.8249531 11.159891 8.6269531 11.087891 C 8.4349531 11.009891 8.2782031 10.894141 8.1582031 10.744141 C 8.0442031 10.588141 7.9640156 10.397922 7.9160156 10.169922 C 7.8680156 9.9419217 7.84375 9.671375 7.84375 9.359375 L 7.84375 5.0742188 L 8.4277344 4.9667969 z M 4.1914062 5.3359375 C 3.9634062 5.3359375 3.7674688 5.3452812 3.6054688 5.3632812 C 3.4494687 5.3752813 3.3151719 5.3864375 3.2011719 5.3984375 L 3.2011719 8.1523438 L 3.9746094 8.1523438 C 4.3046094 8.1523438 4.6012344 8.1356094 4.8652344 8.0996094 C 5.1352344 8.0576094 5.3647813 7.9848125 5.5507812 7.8828125 C 5.7427812 7.7748125 5.8882344 7.6274062 5.9902344 7.4414062 C 6.0922344 7.2554062 6.1445312 7.0184688 6.1445312 6.7304688 C 6.1445312 6.4544687 6.0866563 6.226875 5.9726562 6.046875 C 5.8646563 5.866875 5.71725 5.7250469 5.53125 5.6230469 C 5.35125 5.5150469 5.1441562 5.4404375 4.9101562 5.3984375 C 4.6761562 5.3564375 4.4374063 5.3359375 4.1914062 5.3359375 z M 11.445312 8.8417969 L 13.271484 8.8417969 L 13.271484 9.1757812 L 11.779297 9.1757812 C 11.775364 9.2498812 11.769485 9.3458906 11.761719 9.4628906 C 11.753919 9.5798906 11.746081 9.6994188 11.738281 9.8242188 C 11.730481 9.9451188 11.720684 10.062681 11.708984 10.175781 C 11.697284 10.288881 11.687488 10.379012 11.679688 10.445312 C 11.979988 10.453112 12.238631 10.490341 12.457031 10.556641 C 12.675431 10.622941 12.855694 10.711119 12.996094 10.824219 C 13.136494 10.937319 13.240341 11.074475 13.306641 11.234375 C 13.376841 11.394275 13.410156 11.572578 13.410156 11.767578 C 13.410156 11.939178 13.382719 12.097894 13.324219 12.246094 C 13.269619 12.394294 13.183406 12.523613 13.066406 12.632812 C 12.949406 12.742012 12.800494 12.828225 12.621094 12.890625 C 12.441694 12.953025 12.230075 12.984375 11.984375 12.984375 C 11.859575 12.984375 11.742012 12.974578 11.632812 12.955078 C 11.527512 12.939478 11.431503 12.919884 11.345703 12.896484 C 11.263803 12.873084 11.193266 12.849572 11.134766 12.826172 C 11.076266 12.802772 11.033159 12.783178 11.005859 12.767578 L 11.105469 12.427734 C 11.128869 12.443334 11.168056 12.462928 11.222656 12.486328 C 11.281156 12.509728 11.347775 12.533241 11.421875 12.556641 C 11.499875 12.576141 11.586088 12.593775 11.679688 12.609375 C 11.777187 12.624975 11.879075 12.632812 11.984375 12.632812 C 12.179375 12.632812 12.34005 12.611259 12.46875 12.568359 C 12.60135 12.521559 12.707156 12.458859 12.785156 12.380859 C 12.863156 12.302859 12.918019 12.212728 12.949219 12.111328 C 12.984319 12.006028 13.001953 11.894337 13.001953 11.773438 C 13.001953 11.617437 12.976481 11.476362 12.925781 11.351562 C 12.875081 11.226762 12.78495 11.120956 12.65625 11.035156 C 12.52755 10.949356 12.355119 10.884697 12.136719 10.841797 C 11.918319 10.794997 11.640087 10.771484 11.304688 10.771484 C 11.328087 10.572584 11.347681 10.392316 11.363281 10.228516 C 11.378881 10.060816 11.392597 9.9001469 11.404297 9.7480469 C 11.415997 9.5920469 11.423834 9.4431281 11.427734 9.2988281 C 11.435534 9.1506281 11.441413 8.9977969 11.445312 8.8417969 z "
     id="path4" />
</svg>

<svg xmlns="http://www.w3.org/2000/svg" viewBox="0 0 16 16">
 <path d="m 1.6 0 c -0.886 0 -1.6 0.713 -1.6 1.6 l 0 12.801 c 0 0.886 0.713 1.6 1.6 1.6 l 12.801 0 c 0.886 0 1.6 -0.713 1.6 -1.6 l 0 -12.801 c 0 -0.886 -0.713 -1.6 -1.6 -1.6 l -12.801 0 z m 2.564 4.805 c 0.882 0 1.539 0.168 1.971 0.504 c 0.432 0.336 0.648 0.814 0.648 1.432 c 0 0.354 -0.063 0.656 -0.189 0.908 c -0.126 0.246 -0.305 0.448 -0.539 0.604 c -0.234 0.15 -0.523 0.262 -0.865 0.334 c -0.336 0.066 -0.717 0.098 -1.143 0.098 l -0.846 0 l 0 2.412 l -0.611 0 l 0 -6.119 c 0.216 -0.06 0.468 -0.103 0.756 -0.127 c 0.294 -0.03 0.566 -0.045 0.818 -0.045 z m 4.264 0.162 l 0 1.477 l 1.854 0 l 0 0.494 l -1.854 0 l 0 2.475 c 0 0.264 0.021 0.48 0.063 0.648 c 0.048 0.162 0.115 0.289 0.199 0.379 c 0.084 0.09 0.185 0.15 0.305 0.18 c 0.12 0.03 0.252 0.045 0.396 0.045 c 0.246 0 0.444 -0.028 0.594 -0.082 c 0.15 -0.06 0.268 -0.112 0.352 -0.16 l 0.145 0.484 c -0.084 0.054 -0.231 0.117 -0.441 0.189 c -0.21 0.066 -0.438 0.1 -0.684 0.1 c -0.288 0 -0.531 -0.035 -0.729 -0.107 c -0.192 -0.078 -0.349 -0.194 -0.469 -0.344 c -0.114 -0.156 -0.194 -0.346 -0.242 -0.574 c -0.048 -0.228 -0.072 -0.499 -0.072 -0.811 l 0 -4.285 l 0.584 -0.107 z m -4.236 0.369 c -0.228 0 -0.424 0.009 -0.586 0.027 c -0.156 0.012 -0.29 0.023 -0.404 0.035 l 0 2.754 l 0.773 0 c 0.33 0 0.627 -0.017 0.891 -0.053 c 0.27 -0.042 0.5 -0.115 0.686 -0.217 c 0.192 -0.108 0.337 -0.255 0.439 -0.441 c 0.102 -0.186 0.154 -0.423 0.154 -0.711 c 0 -0.276 -0.058 -0.504 -0.172 -0.684 c -0.108 -0.18 -0.255 -0.322 -0.441 -0.424 c -0.18 -0.108 -0.387 -0.183 -0.621 -0.225 c -0.234 -0.042 -0.473 -0.063 -0.719 -0.063 z m 7.254 3.506 l 1.826 0 l 0 0.334 l -1.492 0 c -0.004 0.074 -0.01 0.17 -0.018 0.287 c -0.008 0.117 -0.016 0.237 -0.023 0.361 c -0.008 0.121 -0.018 0.238 -0.029 0.352 c -0.012 0.113 -0.021 0.203 -0.029 0.27 c 0.3 0.008 0.559 0.045 0.777 0.111 c 0.218 0.066 0.399 0.154 0.539 0.268 c 0.14 0.113 0.244 0.25 0.311 0.41 c 0.07 0.16 0.104 0.338 0.104 0.533 c 0 0.172 -0.027 0.33 -0.086 0.479 c -0.055 0.148 -0.141 0.278 -0.258 0.387 c -0.117 0.109 -0.266 0.195 -0.445 0.258 c -0.179 0.062 -0.391 0.094 -0.637 0.094 c -0.125 0 -0.242 -0.01 -0.352 -0.029 c -0.105 -0.016 -0.201 -0.035 -0.287 -0.059 c -0.082 -0.023 -0.152 -0.047 -0.211 -0.07 c -0.059 -0.023 -0.102 -0.043 -0.129 -0.059 l 0.1 -0.34 c 0.023 0.016 0.063 0.035 0.117 0.059 c 0.058 0.023 0.125 0.047 0.199 0.07 c 0.078 0.019 0.164 0.037 0.258 0.053 c 0.097 0.016 0.199 0.023 0.305 0.023 c 0.195 0 0.356 -0.022 0.484 -0.064 c 0.133 -0.047 0.238 -0.109 0.316 -0.188 c 0.078 -0.078 0.133 -0.168 0.164 -0.27 c 0.035 -0.105 0.053 -0.217 0.053 -0.338 c 0 -0.156 -0.025 -0.297 -0.076 -0.422 c -0.051 -0.125 -0.141 -0.231 -0.27 -0.316 c -0.129 -0.086 -0.301 -0.15 -0.52 -0.193 c -0.218 -0.047 -0.497 -0.07 -0.832 -0.07 c 0.023 -0.199 0.043 -0.379 0.059 -0.543 c 0.016 -0.168 0.029 -0.328 0.041 -0.48 c 0.012 -0.156 0.02 -0.305 0.023 -0.449 c 0.008 -0.148 0.014 -0.301 0.018 -0.457 z" style="fill:#ececec;fill-opacity:1"/>
</svg>
